;FLAVOR:Marlin
;TIME:13351
;Filament used: 10.26m
;Layer height: 0.2
;MINX:62.849
;MINY:40.639
;MINZ:0.3
;MAXX:147.151
;MAXY:169.362
;MAXZ:21.775
;Generated with Cura_SteamEngine 5.2.2
M82 ;absolute extrusion mode
;Profil Homepage: https://github.com/NilsRo/Cura_Anycubic_MegaS_Profile

;Slicer Information - (Support for OctoPrint Slicer Estimator)
;Slicer info:material_guid;0ff92885-617b-4144-a03c-9989872454bc
;Slicer info:material_id;generic_pla_175
;Slicer info:material_brand;Generic
;Slicer info:material_name;PLA
;Slicer info:filament_cost;[0.0]
;Slicer info:material_bed_temperature;60
;Slicer info:material_bed_temperature_layer_0;60
;Slicer info:material_print_temperature;200
;Slicer info:material_print_temperature_layer_0;205
;Slicer info:material_flow;100
;Slicer info:layer_height;0.2
;Slicer info:machine_nozzle_size;0.4
;Slicer info:wall_thickness;1.2000000000000002
;Slicer info:speed_print;50.0
;Slicer info:speed_topbottom;25.0
;Slicer info:travel_speed;100.0
;Slicer info:support;0
;Slicer info:retraction_speed;30
;Slicer info:retraction_amount;6
;Slicer info:layer_height;0.2
;Slicer info:infill_pattern;grid
;Slicer info:infill_sparse_density;25
;Slicer info:cool_fan_enabled;True
;Slicer info:cool_fan_speed;100
;Slicer info:sliced_at;Fri 15-03-2024 15:27:10
G21                                        ; metric values 
G90                                        ; absolute positioning 
M82                                        ; set extruder to absolute mode 
M107                                       ; start with the fan off 
M140 S60   ; Start heating the bed 
G4 S60                                     ; wait 1 minute 
M104 S205 ; start heating the hot end 
M190 S60   ; wait for bed 
M109 S205 ; wait for hotend 
M300 S1000 P500                            ; BEEP heating done 
G28 X0 Y10 Z0                              ; move X/Y to min endstops 
M420 S1                                    ; Enable leveling 
M420 Z2.0                                  ; Set leveling fading height to 2 mm 
G0 Z0.15                                   ; lift nozzle a bit 
G92 E0                                     ; zero the extruded length 
G1 X50 E20 F500                            ; Extrude 20mm of filament in a 5cm line. 
G92 E0                                     ; zero the extruded length again 
G1 E-2 F500                                ; Retract a little 
G1 X50 F500                                ; wipe away from the filament line
G1 X100 F9000                              ; Quickly wipe away from the filament line
G92 E0
G92 E0
G1 F1800 E-6
;LAYER_COUNT:108
;LAYER:0
M106 S76.5
M205 X10 Y10
G1 F480 Z0.375
G0 F6000 X64.603 Y44.571 Z0.375
M205 X8 Y8
;TYPE:SKIRT
G1 F480 Z0.3
G1 F1800 E0
G1 F1200 X65.124 Y43.904 E0.04223
G1 X65.692 Y43.288 E0.08403
G1 X66.391 Y42.654 E0.13111
G1 X67.284 Y42.058 E0.18467
G1 X68.111 Y41.602 E0.23179
G1 X68.691 Y41.343 E0.26348
G1 X69.584 Y41.031 E0.31067
G1 X70.185 Y40.877 E0.34162
G1 X71.148 Y40.705 E0.39043
G1 X72.149 Y40.649 E0.44045
G1 X72.874 Y40.639 E0.47662
G1 X137.173 Y40.64 E3.68451
G1 X138.165 Y40.661 E3.73401
G1 X138.979 Y40.729 E3.77477
G1 X139.826 Y40.879 E3.81768
G1 X140.427 Y41.034 E3.84864
G1 X141.21 Y41.299 E3.88989
G1 X141.956 Y41.63 E3.9306
G1 X142.619 Y41.994 E3.96834
G1 X143.288 Y42.438 E4.0084
G1 X143.973 Y42.982 E4.05204
G1 X144.589 Y43.578 E4.0948
G1 X145.125 Y44.17 E4.13464
G1 X145.732 Y45.063 E4.18851
G1 X146.178 Y45.881 E4.23499
G1 X146.438 Y46.458 E4.26657
G1 X146.757 Y47.369 E4.31472
G1 X146.912 Y47.974 E4.34588
G1 X147.071 Y48.86 E4.39079
G1 X147.138 Y49.768 E4.43621
G1 X147.15 Y50.663 E4.48087
G1 X147.15 Y99.66 E6.92534
G1 X147.136 Y100.524 E6.96845
G1 X147.119 Y100.916 E6.98803
G1 X147.04 Y103.673 E7.12563
G1 X147.04 Y106.344 E7.25889
G1 X147.135 Y109.517 E7.41726
G1 X147.151 Y110.524 E7.4675
G1 X147.151 Y159.342 E9.90304
G1 X147.14 Y160.224 E9.94705
G1 X147.063 Y161.131 E9.99246
G1 X146.9 Y162.079 E10.04045
G1 X146.746 Y162.667 E10.07078
G1 X146.428 Y163.563 E10.11821
G1 X146.151 Y164.173 E10.15164
G1 X145.798 Y164.841 E10.18933
G1 X145.273 Y165.597 E10.23525
G1 X144.655 Y166.342 E10.28354
G1 X144.203 Y166.799 E10.31561
G1 X143.454 Y167.434 E10.3646
G1 X142.925 Y167.808 E10.39692
G1 X142.105 Y168.288 E10.44432
G1 X141.525 Y168.565 E10.47639
G1 X140.61 Y168.908 E10.52514
G1 X139.965 Y169.087 E10.55854
G1 X138.985 Y169.267 E10.60825
G1 X138.16 Y169.344 E10.64959
G1 X136.987 Y169.362 E10.70811
G1 X72.83 Y169.36 E13.90892
G1 X71.972 Y169.348 E13.95173
G1 X71.11 Y169.278 E13.99488
G1 X70.157 Y169.117 E14.0431
G1 X69.553 Y168.96 E14.07423
G1 X68.643 Y168.637 E14.12241
G1 X68.034 Y168.36 E14.15578
G1 X67.374 Y168.012 E14.19301
G1 X66.614 Y167.484 E14.23918
G1 X65.869 Y166.866 E14.28747
G1 X65.412 Y166.414 E14.31954
G1 X64.777 Y165.665 E14.36853
G1 X64.403 Y165.136 E14.40085
G1 X63.924 Y164.32 E14.44806
G1 X63.647 Y163.741 E14.48008
G1 X63.302 Y162.817 E14.52928
G1 X63.123 Y162.17 E14.56278
G1 X62.944 Y161.197 E14.61213
G1 X62.867 Y160.376 E14.65327
G1 X62.849 Y159.198 E14.71205
G1 X62.85 Y110.337 E17.14974
G1 X62.864 Y109.494 E17.1918
G1 X62.96 Y106.338 E17.34933
G1 X62.96 Y103.685 E17.48168
G1 X62.881 Y100.876 E17.62188
G1 X62.864 Y100.481 E17.64161
G1 X62.85 Y99.615 E17.68482
G1 X62.85 Y50.613 E20.12954
G1 X62.864 Y49.671 E20.17654
G1 X62.934 Y48.873 E20.2165
G1 X63.049 Y48.135 E20.25377
G1 X63.271 Y47.265 E20.29856
G1 X63.513 Y46.57 E20.33528
G1 X63.848 Y45.818 E20.37635
G1 X64.265 Y45.078 E20.41873
G1 X64.603 Y44.571 E20.44913
M205 X10 Y10
G0 F6000 X64.935 Y44.793
M205 X8 Y8
G1 F1200 X65.486 Y44.088 E20.49377
G1 X66.072 Y43.483 E20.53579
G1 X66.642 Y42.968 E20.57411
G1 X67.506 Y42.391 E20.62595
G1 X68.274 Y41.967 E20.66971
G1 X68.854 Y41.708 E20.7014
G1 X69.683 Y41.419 E20.7452
G1 X70.284 Y41.265 E20.77616
G1 X71.188 Y41.103 E20.82198
G1 X72.155 Y41.049 E20.8703
G1 X72.874 Y41.039 E20.90617
G1 X137.168 Y41.04 E24.11381
G1 X138.139 Y41.06 E24.16226
G1 X138.94 Y41.127 E24.20237
G1 X139.727 Y41.267 E24.24225
G1 X140.328 Y41.422 E24.27321
G1 X141.055 Y41.668 E24.3115
G1 X141.787 Y41.993 E24.35146
G1 X142.403 Y42.331 E24.38651
G1 X143.061 Y42.768 E24.42592
G1 X143.705 Y43.279 E24.46694
G1 X144.309 Y43.864 E24.50889
G1 X144.822 Y44.432 E24.54707
G1 X145.442 Y45.364 E24.60292
G1 X145.813 Y46.046 E24.64165
G1 X146.073 Y46.623 E24.67323
G1 X146.369 Y47.468 E24.71789
G1 X146.524 Y48.073 E24.74905
G1 X146.686 Y48.974 E24.79473
G1 X146.74 Y49.943 E24.84314
G1 X146.75 Y50.663 E24.87907
G1 X146.75 Y99.655 E27.32329
G1 X146.736 Y100.507 E27.3658
G1 X146.64 Y103.662 E27.52328
G1 X146.64 Y106.323 E27.65604
G1 X146.734 Y109.453 E27.81226
G1 X146.751 Y110.524 E27.8657
G1 X146.751 Y159.337 E30.30099
G1 X146.74 Y160.213 E30.3447
G1 X146.665 Y161.097 E30.38896
G1 X146.513 Y161.977 E30.43351
G1 X146.359 Y162.565 E30.46384
G1 X146.064 Y163.398 E30.50793
G1 X145.787 Y164.008 E30.54135
G1 X145.324 Y164.823 E30.58811
G1 X144.945 Y165.369 E30.62127
G1 X144.37 Y166.061 E30.66616
G1 X143.918 Y166.518 E30.69823
G1 X143.223 Y167.107 E30.74368
G1 X142.694 Y167.481 E30.776
G1 X141.933 Y167.927 E30.82001
G1 X141.353 Y168.204 E30.85207
G1 X140.503 Y168.523 E30.89737
G1 X139.858 Y168.702 E30.93076
G1 X138.948 Y168.869 E30.97692
G1 X138.143 Y168.944 E31.01726
G1 X136.987 Y168.962 E31.07494
G1 X72.836 Y168.961 E34.27544
G1 X71.994 Y168.95 E34.31746
G1 X71.142 Y168.88 E34.36011
G1 X70.258 Y168.73 E34.40484
G1 X69.654 Y168.573 E34.43597
G1 X68.809 Y168.273 E34.48071
G1 X68.2 Y167.996 E34.51409
G1 X67.388 Y167.535 E34.56067
G1 X66.842 Y167.156 E34.59383
G1 X66.15 Y166.581 E34.63872
G1 X65.693 Y166.129 E34.67079
G1 X65.104 Y165.434 E34.71624
G1 X64.73 Y164.905 E34.74856
G1 X64.285 Y164.147 E34.79241
G1 X64.008 Y163.568 E34.82443
G1 X63.687 Y162.711 E34.87009
G1 X63.508 Y162.064 E34.90358
G1 X63.342 Y161.16 E34.94944
G1 X63.267 Y160.359 E34.98957
G1 X63.249 Y159.198 E35.0475
G1 X63.25 Y110.342 E37.48494
G1 X63.264 Y109.511 E37.5264
G1 X63.36 Y106.349 E37.68423
G1 X63.36 Y103.674 E37.81768
G1 X63.26 Y100.319 E37.98514
G1 X63.25 Y99.615 E38.02027
G1 X63.25 Y50.619 E40.46469
G1 X63.264 Y49.698 E40.51064
G1 X63.333 Y48.908 E40.5502
G1 X63.439 Y48.223 E40.58479
G1 X63.657 Y47.372 E40.62861
G1 X63.912 Y46.638 E40.66738
G1 X64.211 Y45.987 E40.70312
G1 X64.597 Y45.3 E40.74243
G1 X64.935 Y44.793 E40.77283
M205 X10 Y10
G1 F1800 E34.77283
G1 F480 Z0.375
;MESH:Encloure Bottom.stl
G0 F6000 X69.517 Y49.25 Z0.375
M205 X8 Y8
;TYPE:WALL-INNER
G1 F480 Z0.3
G1 F1800 E40.77283
G1 F1200 X69.449 Y50.034 E40.81209
G1 X69.45 Y100.248 E43.31728
G1 X69.494 Y100.749 E43.34237
G1 X69.795 Y101.611 E43.38792
G1 X70.102 Y102.069 E43.41543
G1 X70.493 Y102.439 E43.44229
G1 X71.462 Y102.973 E43.49749
G1 X72.244 Y103.039 E43.53664
G1 X137.755 Y103.039 E46.805
G1 X138.494 Y102.975 E46.842
G1 X139.124 Y102.692 E46.87646
G1 X139.579 Y102.389 E46.90373
G1 X139.95 Y101.997 E46.93066
G1 X140.483 Y101.028 E46.98583
G1 X140.551 Y100.244 E47.0251
G1 X140.55 Y50.03 E49.53028
G1 X140.486 Y49.296 E49.56704
G1 X140.204 Y48.665 E49.60152
G1 X139.9 Y48.21 E49.62882
G1 X139.508 Y47.839 E49.65575
G1 X138.538 Y47.305 E49.71099
G1 X137.756 Y47.239 E49.75014
G1 X72.245 Y47.239 E53.0185
G1 X71.74 Y47.283 E53.04379
G1 X70.876 Y47.585 E53.08945
G1 X70.421 Y47.889 E53.11675
G1 X70.05 Y48.281 E53.14368
G1 X69.517 Y49.25 E53.19886
M205 X10 Y10
G0 F6000 X69.049 Y50.017
M205 X8 Y8
G1 F1200 X69.05 Y100.265 E55.70574
G1 X69.098 Y100.817 E55.73338
G1 X69.227 Y101.319 E55.75924
G1 X69.444 Y101.805 E55.78579
G1 X69.794 Y102.329 E55.81723
G1 X70.243 Y102.753 E55.84804
G1 X70.681 Y103.045 E55.87431
G1 X71.169 Y103.263 E55.90097
G1 X71.671 Y103.392 E55.92683
G1 X72.228 Y103.439 E55.95472
G1 X137.772 Y103.439 E59.22472
G1 X138.328 Y103.391 E59.25256
G1 X138.83 Y103.262 E59.27842
G1 X139.318 Y103.044 E59.30509
G1 X139.839 Y102.697 E59.33632
G1 X140.264 Y102.247 E59.3672
G1 X140.556 Y101.808 E59.3935
G1 X140.774 Y101.32 E59.42017
G1 X140.903 Y100.817 E59.44607
G1 X140.951 Y100.261 E59.47392
G1 X140.95 Y50.013 E61.9808
G1 X140.902 Y49.462 E62.00839
G1 X140.773 Y48.959 E62.0343
G1 X140.555 Y48.471 E62.06096
G1 X140.208 Y47.95 E62.09219
G1 X139.758 Y47.525 E62.12308
G1 X139.319 Y47.233 E62.14938
G1 X138.831 Y47.015 E62.17604
G1 X138.329 Y46.886 E62.2019
G1 X137.772 Y46.839 E62.22979
G1 X72.228 Y46.839 E65.49979
G1 X71.672 Y46.887 E65.52764
G1 X71.17 Y47.016 E65.55349
G1 X70.682 Y47.234 E65.58016
G1 X70.161 Y47.581 E65.61139
G1 X69.736 Y48.031 E65.64227
G1 X69.444 Y48.47 E65.66858
G1 X69.226 Y48.958 E65.69524
G1 X69.097 Y49.46 E65.7211
G1 X69.049 Y50.017 E65.74899
M205 X10 Y10
G0 F6000 X68.701 Y49.393
M205 X8 Y8
;TYPE:WALL-OUTER
G1 F1200 X68.649 Y50 E65.77939
G1 X68.65 Y100.282 E68.28796
G1 X68.702 Y100.884 E68.31811
G1 X68.848 Y101.451 E68.34732
G1 X69.092 Y101.999 E68.37725
G1 X69.486 Y102.589 E68.41264
G1 X69.993 Y103.067 E68.44741
G1 X70.487 Y103.397 E68.47705
G1 X71.037 Y103.642 E68.50708
G1 X71.604 Y103.788 E68.5363
G1 X72.211 Y103.839 E68.56669
G1 X137.789 Y103.839 E71.83839
G1 X138.395 Y103.787 E71.86873
G1 X138.962 Y103.641 E71.89794
G1 X139.512 Y103.396 E71.92798
G1 X140.099 Y103.005 E71.96317
G1 X140.578 Y102.497 E71.998
G1 X140.908 Y102.002 E72.02768
G1 X141.153 Y101.452 E72.05772
G1 X141.299 Y100.884 E72.08698
G1 X141.351 Y100.278 E72.11732
G1 X141.35 Y49.996 E74.6259
G1 X141.298 Y49.394 E74.65605
G1 X141.152 Y48.827 E74.68526
G1 X140.907 Y48.277 E74.7153
G1 X140.516 Y47.69 E74.75049
G1 X140.008 Y47.211 E74.78532
G1 X139.513 Y46.881 E74.815
G1 X138.963 Y46.636 E74.84504
G1 X138.396 Y46.49 E74.87425
G1 X137.789 Y46.439 E74.90464
G1 X72.211 Y46.439 E78.17634
G1 X71.605 Y46.491 E78.20668
G1 X71.038 Y46.637 E78.23589
G1 X70.488 Y46.882 E78.26593
G1 X69.901 Y47.273 E78.30112
G1 X69.422 Y47.781 E78.33595
G1 X69.092 Y48.276 E78.36564
G1 X68.847 Y48.826 E78.39567
G1 X68.701 Y49.393 E78.42488
M205 X10 Y10
G0 F6000 X68.684 Y49.592
G0 X69.829 Y50.061
M205 X8 Y8
;TYPE:SKIN
G1 F1200 X69.83 Y100.225 E80.92758
G1 X69.995 Y101.226 E80.97819
G1 X70.394 Y101.822 E81.01397
G1 X70.901 Y102.301 E81.04877
G1 X71.915 Y102.659 E81.10242
G1 X138.077 Y102.658 E84.40326
G1 X138.949 Y102.351 E84.44938
G1 X139.332 Y102.097 E84.47231
G1 X139.649 Y101.762 E84.49532
G1 X140.033 Y101.059 E84.53528
G1 X140.171 Y100.217 E84.57785
G1 X140.17 Y50.053 E87.08054
G1 X140.004 Y49.051 E87.13121
G1 X139.61 Y48.46 E87.16665
G1 X139.275 Y48.141 E87.18973
G1 X138.57 Y47.755 E87.22983
G1 X137.729 Y47.619 E87.27233
G1 X72.272 Y47.619 E90.53799
G1 X71.264 Y47.783 E90.58894
G1 X70.671 Y48.179 E90.62452
G1 X70.351 Y48.516 E90.6477
G1 X69.967 Y49.219 E90.68767
G1 X69.829 Y50.061 E90.73023
M205 X10 Y10
G1 F1800 E84.73023
G1 F480 Z0.375
G0 F6000 X70.484 Y101.597 Z0.375
M205 X8 Y8
G1 F480 Z0.3
G1 F1800 E90.73023
G1 F1200 X71.014 Y102.127 E90.76763
M205 X10 Y10
G0 F6000 X71.89 Y102.437
M205 X8 Y8
G1 F1200 X70.102 Y100.649 E90.89378
M205 X10 Y10
G0 F6000 X70.029 Y100.011
M205 X8 Y8
G1 F1200 X72.476 Y102.457 E91.0664
M205 X10 Y10
G0 F6000 X73.042 Y102.457
M205 X8 Y8
G1 F1200 X70.029 Y99.445 E91.27894
M205 X10 Y10
G0 F6000 X70.029 Y98.879
M205 X8 Y8
G1 F1200 X73.607 Y102.457 E91.53139
M205 X10 Y10
G0 F6000 X74.173 Y102.457
M205 X8 Y8
G1 F1200 X70.029 Y98.314 E91.82374
M205 X10 Y10
G0 F6000 X70.029 Y97.748
M205 X8 Y8
G1 F1200 X74.739 Y102.457 E92.15602
M205 X10 Y10
G0 F6000 X75.304 Y102.457
M205 X8 Y8
G1 F1200 X70.029 Y97.182 E92.5282
M205 X10 Y10
G0 F6000 X70.029 Y96.616
M205 X8 Y8
G1 F1200 X75.87 Y102.457 E92.94031
M205 X10 Y10
G0 F6000 X76.436 Y102.457
M205 X8 Y8
G1 F1200 X70.029 Y96.051 E93.39233
M205 X10 Y10
G0 F6000 X70.029 Y95.485
M205 X8 Y8
G1 F1200 X77.001 Y102.457 E93.88424
M205 X10 Y10
G0 F6000 X77.567 Y102.457
M205 X8 Y8
G1 F1200 X70.029 Y94.919 E94.41608
M205 X10 Y10
G0 F6000 X70.029 Y94.354
M205 X8 Y8
G1 F1200 X78.133 Y102.457 E94.98783
M205 X10 Y10
G0 F6000 X78.698 Y102.457
M205 X8 Y8
G1 F1200 X70.029 Y93.788 E95.59947
M205 X10 Y10
G0 F6000 X70.029 Y93.222
M205 X8 Y8
G1 F1200 X79.264 Y102.457 E96.25105
M205 X10 Y10
G0 F6000 X79.83 Y102.457
M205 X8 Y8
G1 F1200 X70.029 Y92.657 E96.94253
M205 X10 Y10
G0 F6000 X70.029 Y92.091
M205 X8 Y8
G1 F1200 X80.395 Y102.457 E97.67391
M205 X10 Y10
G0 F6000 X80.961 Y102.457
M205 X8 Y8
G1 F1200 X70.029 Y91.525 E98.44522
M205 X10 Y10
G0 F6000 X70.029 Y90.96
M205 X8 Y8
G1 F1200 X81.527 Y102.457 E99.25643
M205 X10 Y10
G0 F6000 X82.092 Y102.457
M205 X8 Y8
G1 F1200 X70.029 Y90.394 E100.10754
M205 X10 Y10
G0 F6000 X70.029 Y89.828
M205 X8 Y8
G1 F1200 X82.658 Y102.457 E100.99859
M205 X10 Y10
G0 F6000 X83.224 Y102.457
M205 X8 Y8
G1 F1200 X70.029 Y89.263 E101.92953
M205 X10 Y10
G0 F6000 X70.029 Y88.697
M205 X8 Y8
G1 F1200 X83.79 Y102.457 E102.90041
M205 X10 Y10
G0 F6000 X84.355 Y102.457
M205 X8 Y8
G1 F1200 X70.029 Y88.131 E103.91118
M205 X10 Y10
G0 F6000 X70.029 Y87.565
M205 X8 Y8
G1 F1200 X84.921 Y102.457 E104.96189
M205 X10 Y10
G0 F6000 X85.487 Y102.457
M205 X8 Y8
G1 F1200 X70.029 Y87 E106.0525
M205 X10 Y10
G0 F6000 X70.029 Y86.434
M205 X8 Y8
G1 F1200 X86.052 Y102.457 E107.18301
M205 X10 Y10
G0 F6000 X86.618 Y102.457
M205 X8 Y8
G1 F1200 X70.029 Y85.868 E108.35346
M205 X10 Y10
G0 F6000 X70.029 Y85.303
M205 X8 Y8
G1 F1200 X87.184 Y102.457 E109.5638
M205 X10 Y10
G0 F6000 X87.749 Y102.457
M205 X8 Y8
G1 F1200 X70.029 Y84.737 E110.81404
M205 X10 Y10
G0 F6000 X70.029 Y84.171
M205 X8 Y8
G1 F1200 X88.315 Y102.457 E112.10422
M205 X10 Y10
G0 F6000 X88.881 Y102.457
M205 X8 Y8
G1 F1200 X70.029 Y83.606 E113.43429
M205 X10 Y10
G0 F6000 X70.029 Y83.039
M205 X8 Y8
G1 F1200 X89.446 Y102.457 E114.8043
M205 X10 Y10
G0 F6000 X90.012 Y102.457
M205 X8 Y8
G1 F1200 X70.029 Y82.474 E116.21421
M205 X10 Y10
G0 F6000 X70.029 Y81.908
M205 X8 Y8
G1 F1200 X90.578 Y102.457 E117.66405
M205 X10 Y10
G0 F6000 X91.143 Y102.457
M205 X8 Y8
G1 F1200 X70.029 Y81.342 E119.1538
M205 X10 Y10
G0 F6000 X70.029 Y80.777
M205 X8 Y8
G1 F1200 X91.709 Y102.457 E120.68344
M205 X10 Y10
G0 F6000 X92.275 Y102.457
M205 X8 Y8
G1 F1200 X70.029 Y80.211 E122.25301
M205 X10 Y10
G0 F6000 X70.029 Y79.645
M205 X8 Y8
G1 F1200 X92.84 Y102.457 E123.86249
M205 X10 Y10
G0 F6000 X93.406 Y102.457
M205 X8 Y8
G1 F1200 X70.029 Y79.079 E125.5119
