;FLAVOR:Marlin
;TIME:13382
;Filament used: 10.261m
;Layer height: 0.2
;MINX:62.85
;MINY:40.8
;MINZ:0.3
;MAXX:147.15
;MAXY:169.5
;MAXZ:21.775
;Generated with Cura_SteamEngine 5.2.2
M82 ;absolute extrusion mode
;Profil Homepage: https://github.com/NilsRo/Cura_Anycubic_MegaS_Profile

;Slicer Information - (Support for OctoPrint Slicer Estimator)
;Slicer info:material_guid;0ff92885-617b-4144-a03c-9989872454bc
;Slicer info:material_id;generic_pla_175
;Slicer info:material_brand;Generic
;Slicer info:material_name;PLA
;Slicer info:filament_cost;[0.0]
;Slicer info:material_bed_temperature;60
;Slicer info:material_bed_temperature_layer_0;60
;Slicer info:material_print_temperature;200
;Slicer info:material_print_temperature_layer_0;205
;Slicer info:material_flow;100
;Slicer info:layer_height;0.2
;Slicer info:machine_nozzle_size;0.4
;Slicer info:wall_thickness;1.2000000000000002
;Slicer info:speed_print;50.0
;Slicer info:speed_topbottom;25.0
;Slicer info:travel_speed;100.0
;Slicer info:support;0
;Slicer info:retraction_speed;30
;Slicer info:retraction_amount;6
;Slicer info:layer_height;0.2
;Slicer info:infill_pattern;grid
;Slicer info:infill_sparse_density;25
;Slicer info:cool_fan_enabled;True
;Slicer info:cool_fan_speed;100
;Slicer info:sliced_at;Fri 15-03-2024 11:15:39
G21                                        ; metric values 
G90                                        ; absolute positioning 
M82                                        ; set extruder to absolute mode 
M107                                       ; start with the fan off 
M140 S60   ; Start heating the bed 
G4 S60                                     ; wait 1 minute 
M104 S205 ; start heating the hot end 
M190 S60   ; wait for bed 
M109 S205 ; wait for hotend 
M300 S1000 P500                            ; BEEP heating done 
G28 X0 Y10 Z0                              ; move X/Y to min endstops 
M420 S1                                    ; Enable leveling 
M420 Z2.0                                  ; Set leveling fading height to 2 mm 
G0 Z0.15                                   ; lift nozzle a bit 
G92 E0                                     ; zero the extruded length 
G1 X50 E20 F500                            ; Extrude 20mm of filament in a 5cm line. 
G92 E0                                     ; zero the extruded length again 
G1 E-2 F500                                ; Retract a little 
G1 X50 F500                                ; wipe away from the filament line
G1 X100 F9000                              ; Quickly wipe away from the filament line
G92 E0
G92 E0
G1 F1800 E-6
;LAYER_COUNT:108
;LAYER:0
M106 S76.5
M205 X10 Y10
G1 F480 Z0.375
G0 F6000 X64.603 Y44.732 Z0.375
M205 X8 Y8
;TYPE:SKIRT
G1 F480 Z0.3
G1 F1800 E0
G1 F1200 X65.124 Y44.065 E0.04223
G1 X65.692 Y43.449 E0.08403
G1 X66.391 Y42.815 E0.13111
G1 X67.284 Y42.219 E0.18467
G1 X68.111 Y41.763 E0.23179
G1 X68.691 Y41.504 E0.26348
G1 X69.584 Y41.192 E0.31067
G1 X70.185 Y41.038 E0.34162
G1 X71.148 Y40.866 E0.39043
G1 X72.149 Y40.81 E0.44045
G1 X72.874 Y40.8 E0.47662
G1 X137.173 Y40.801 E3.68451
G1 X138.165 Y40.822 E3.73401
G1 X138.979 Y40.89 E3.77477
G1 X139.826 Y41.04 E3.81768
G1 X140.427 Y41.195 E3.84864
G1 X141.21 Y41.46 E3.88989
G1 X141.956 Y41.791 E3.9306
G1 X142.619 Y42.155 E3.96834
G1 X143.288 Y42.599 E4.0084
G1 X143.973 Y43.143 E4.05204
G1 X144.589 Y43.739 E4.0948
G1 X145.125 Y44.331 E4.13464
G1 X145.732 Y45.224 E4.18851
G1 X146.178 Y46.042 E4.23499
G1 X146.438 Y46.619 E4.26657
G1 X146.757 Y47.53 E4.31472
G1 X146.912 Y48.135 E4.34588
G1 X147.071 Y49.021 E4.39079
G1 X147.138 Y49.929 E4.43621
G1 X147.15 Y50.824 E4.48087
G1 X147.15 Y99.823 E6.92544
G1 X147.136 Y100.671 E6.96775
G1 X147.118 Y101.093 E6.98882
G1 X147.041 Y103.848 E7.12633
G1 X147.041 Y106.523 E7.25978
G1 X147.137 Y109.705 E7.4186
G1 X147.15 Y110.593 E7.46291
G1 X147.15 Y159.481 E9.90194
G1 X147.139 Y160.357 E9.94565
G1 X147.067 Y161.231 E9.9894
G1 X146.904 Y162.188 E10.03784
G1 X146.738 Y162.824 E10.07063
G1 X146.41 Y163.744 E10.11936
G1 X146.144 Y164.324 E10.15119
G1 X145.663 Y165.171 E10.19979
G1 X145.282 Y165.723 E10.23325
G1 X144.654 Y166.48 E10.28232
G1 X144.201 Y166.938 E10.31446
G1 X143.455 Y167.571 E10.36327
G1 X142.935 Y167.939 E10.39505
G1 X142.158 Y168.399 E10.4401
G1 X141.587 Y168.678 E10.47181
G1 X140.886 Y168.971 E10.50971
G1 X139.962 Y169.226 E10.55753
G1 X138.985 Y169.405 E10.60709
G1 X138.128 Y169.484 E10.65003
G1 X137.057 Y169.5 E10.70346
G1 X72.831 Y169.5 E13.90771
G1 X71.978 Y169.488 E13.95027
G1 X71.106 Y169.416 E13.99393
G1 X70.147 Y169.252 E14.04246
G1 X69.518 Y169.087 E14.07491
G1 X68.601 Y168.759 E14.12349
G1 X68.022 Y168.493 E14.15528
G1 X67.179 Y168.013 E14.20368
G1 X66.627 Y167.632 E14.23714
G1 X65.87 Y167.004 E14.28621
G1 X65.412 Y166.551 E14.31835
G1 X64.779 Y165.805 E14.36716
G1 X64.411 Y165.285 E14.39895
G1 X63.952 Y164.512 E14.4438
G1 X63.672 Y163.94 E14.47557
G1 X63.374 Y163.226 E14.51417
G1 X63.122 Y162.307 E14.56171
G1 X62.946 Y161.336 E14.61094
G1 X62.866 Y160.468 E14.65443
G1 X62.85 Y159.377 E14.70887
G1 X62.851 Y110.478 E17.14845
G1 X62.865 Y109.607 E17.19191
G1 X62.96 Y106.499 E17.34704
G1 X62.96 Y103.847 E17.47935
G1 X62.881 Y101.041 E17.6194
G1 X62.864 Y100.647 E17.63907
G1 X62.85 Y99.776 E17.68253
G1 X62.85 Y50.774 E20.12725
G1 X62.864 Y49.832 E20.17425
G1 X62.934 Y49.034 E20.21422
G1 X63.049 Y48.296 E20.25148
G1 X63.271 Y47.426 E20.29628
G1 X63.513 Y46.731 E20.33299
G1 X63.848 Y45.979 E20.37406
G1 X64.265 Y45.239 E20.41644
G1 X64.603 Y44.732 E20.44684
M205 X10 Y10
G0 F6000 X64.935 Y44.954
M205 X8 Y8
G1 F1200 X65.486 Y44.249 E20.49148
G1 X66.072 Y43.644 E20.5335
G1 X66.642 Y43.129 E20.57183
G1 X67.506 Y42.552 E20.62366
G1 X68.274 Y42.128 E20.66743
G1 X68.854 Y41.869 E20.69912
G1 X69.683 Y41.58 E20.74292
G1 X70.284 Y41.426 E20.77387
G1 X71.188 Y41.264 E20.81969
G1 X72.155 Y41.21 E20.86801
G1 X72.874 Y41.2 E20.90389
G1 X137.168 Y41.201 E24.11153
G1 X138.139 Y41.221 E24.15998
G1 X138.94 Y41.288 E24.20008
G1 X139.727 Y41.428 E24.23996
G1 X140.328 Y41.583 E24.27093
G1 X141.055 Y41.829 E24.30922
G1 X141.787 Y42.154 E24.34917
G1 X142.403 Y42.492 E24.38423
G1 X143.061 Y42.929 E24.42364
G1 X143.705 Y43.44 E24.46465
G1 X144.309 Y44.025 E24.5066
G1 X144.822 Y44.593 E24.54479
G1 X145.442 Y45.525 E24.60063
G1 X145.813 Y46.207 E24.63937
G1 X146.073 Y46.784 E24.67094
G1 X146.369 Y47.629 E24.71561
G1 X146.524 Y48.234 E24.74677
G1 X146.686 Y49.135 E24.79244
G1 X146.74 Y50.104 E24.84086
G1 X146.75 Y50.824 E24.87678
G1 X146.75 Y99.817 E27.32105
G1 X146.736 Y100.654 E27.36282
G1 X146.718 Y101.082 E27.38419
G1 X146.641 Y103.837 E27.52169
G1 X146.641 Y106.502 E27.65465
G1 X146.736 Y109.631 E27.81083
G1 X146.75 Y110.593 E27.85883
G1 X146.75 Y159.475 E30.29756
G1 X146.739 Y160.349 E30.34117
G1 X146.669 Y161.199 E30.38372
G1 X146.517 Y162.087 E30.42866
G1 X146.351 Y162.723 E30.46146
G1 X146.047 Y163.578 E30.50673
G1 X145.781 Y164.158 E30.53856
G1 X145.334 Y164.944 E30.58368
G1 X144.953 Y165.496 E30.61714
G1 X144.37 Y166.199 E30.6627
G1 X143.917 Y166.657 E30.69484
G1 X143.224 Y167.245 E30.74018
G1 X142.704 Y167.613 E30.77196
G1 X141.983 Y168.04 E30.81377
G1 X141.412 Y168.319 E30.84548
G1 X140.512 Y168.66 E30.89349
G1 X139.856 Y168.841 E30.92744
G1 X138.948 Y169.006 E30.97349
G1 X138.098 Y169.084 E31.01607
G1 X137.057 Y169.1 E31.06801
G1 X72.836 Y169.101 E34.27201
G1 X72.016 Y169.09 E34.31292
G1 X71.139 Y169.017 E34.35683
G1 X70.249 Y168.865 E34.40188
G1 X69.62 Y168.7 E34.43432
G1 X68.768 Y168.395 E34.47947
G1 X68.189 Y168.129 E34.51125
G1 X67.406 Y167.684 E34.55619
G1 X66.854 Y167.303 E34.58965
G1 X66.151 Y166.72 E34.63521
G1 X65.693 Y166.267 E34.66735
G1 X65.105 Y165.574 E34.71269
G1 X64.737 Y165.054 E34.74448
G1 X64.312 Y164.336 E34.7861
G1 X64.032 Y163.764 E34.81788
G1 X63.753 Y163.091 E34.85422
G1 X63.508 Y162.201 E34.90028
G1 X63.344 Y161.3 E34.94597
G1 X63.266 Y160.453 E34.9884
G1 X63.25 Y159.377 E35.04209
G1 X63.251 Y110.483 E37.48142
G1 X63.265 Y109.624 E37.52428
G1 X63.282 Y109.24 E37.54346
G1 X63.36 Y106.51 E37.67971
G1 X63.36 Y103.835 E37.81317
G1 X63.26 Y100.484 E37.98043
G1 X63.25 Y99.776 E38.01575
G1 X63.25 Y50.78 E40.46017
G1 X63.264 Y49.859 E40.50613
G1 X63.333 Y49.069 E40.54569
G1 X63.439 Y48.384 E40.58027
G1 X63.657 Y47.533 E40.6241
G1 X63.912 Y46.799 E40.66287
G1 X64.211 Y46.148 E40.69861
G1 X64.597 Y45.461 E40.73792
G1 X64.935 Y44.954 E40.76832
M205 X10 Y10
G1 F1800 E34.76832
G1 F480 Z0.375
;MESH:Encloure Bottom.stl
G0 F6000 X69.517 Y49.411 Z0.375
M205 X8 Y8
;TYPE:WALL-INNER
G1 F480 Z0.3
G1 F1800 E40.76832
G1 F1200 X69.449 Y50.195 E40.80758
G1 X69.45 Y100.409 E43.31277
G1 X69.494 Y100.91 E43.33786
G1 X69.795 Y101.772 E43.38341
G1 X70.1 Y102.228 E43.41078
G1 X70.694 Y102.792 E43.45165
G1 X71.738 Y103.157 E43.50682
G1 X72.244 Y103.2 E43.53216
G1 X137.755 Y103.2 E46.80052
G1 X138.494 Y103.136 E46.83752
G1 X139.124 Y102.853 E46.87198
G1 X139.579 Y102.55 E46.89925
G1 X139.95 Y102.158 E46.92618
G1 X140.483 Y101.189 E46.98135
G1 X140.551 Y100.405 E47.02061
G1 X140.55 Y50.191 E49.5258
G1 X140.486 Y49.457 E49.56256
G1 X140.204 Y48.826 E49.59704
G1 X139.9 Y48.371 E49.62434
G1 X139.508 Y48 E49.65127
G1 X138.538 Y47.466 E49.70651
G1 X137.756 Y47.4 E49.74566
G1 X72.245 Y47.4 E53.01402
G1 X71.74 Y47.444 E53.03931
G1 X70.876 Y47.746 E53.08497
G1 X70.421 Y48.05 E53.11227
G1 X70.05 Y48.442 E53.1392
G1 X69.517 Y49.411 E53.19437
M205 X10 Y10
G0 F6000 X69.049 Y50.178
M205 X8 Y8
G1 F1200 X69.05 Y100.426 E55.70126
G1 X69.098 Y100.978 E55.7289
G1 X69.227 Y101.48 E55.75476
G1 X69.444 Y101.966 E55.78131
G1 X69.792 Y102.487 E55.81257
G1 X70.243 Y102.915 E55.84359
G1 X70.681 Y103.206 E55.86983
G1 X71.169 Y103.424 E55.89649
G1 X71.671 Y103.553 E55.92235
G1 X72.228 Y103.6 E55.95024
G1 X137.772 Y103.6 E59.22024
G1 X138.328 Y103.552 E59.24808
G1 X138.83 Y103.423 E59.27394
G1 X139.318 Y103.205 E59.30061
G1 X139.839 Y102.858 E59.33184
G1 X140.264 Y102.408 E59.36272
G1 X140.556 Y101.969 E59.38902
G1 X140.774 Y101.481 E59.41569
G1 X140.903 Y100.978 E59.44159
G1 X140.951 Y100.422 E59.46944
G1 X140.95 Y50.174 E61.97632
G1 X140.902 Y49.623 E62.00391
G1 X140.773 Y49.12 E62.02982
G1 X140.555 Y48.632 E62.05649
G1 X140.208 Y48.111 E62.08772
G1 X139.758 Y47.686 E62.1186
G1 X139.319 Y47.394 E62.1449
G1 X138.831 Y47.176 E62.17157
G1 X138.329 Y47.047 E62.19742
G1 X137.772 Y47 E62.22531
G1 X72.228 Y47 E65.49532
G1 X71.672 Y47.048 E65.52316
G1 X71.17 Y47.177 E65.54902
G1 X70.682 Y47.395 E65.57568
G1 X70.161 Y47.742 E65.60691
G1 X69.736 Y48.192 E65.63779
G1 X69.444 Y48.631 E65.6641
G1 X69.226 Y49.119 E65.69076
G1 X69.097 Y49.621 E65.71662
G1 X69.049 Y50.178 E65.74451
M205 X10 Y10
G0 F6000 X68.701 Y49.554
M205 X8 Y8
;TYPE:WALL-OUTER
G1 F1200 X68.649 Y50.161 E65.77491
G1 X68.65 Y100.443 E68.28349
G1 X68.702 Y101.045 E68.31363
G1 X68.848 Y101.612 E68.34284
G1 X69.092 Y102.16 E68.37277
G1 X69.484 Y102.747 E68.40798
G1 X69.993 Y103.229 E68.44296
G1 X70.487 Y103.558 E68.47257
G1 X71.037 Y103.803 E68.50261
G1 X71.604 Y103.949 E68.53182
G1 X72.211 Y104 E68.56221
G1 X137.789 Y104 E71.83391
G1 X138.395 Y103.948 E71.86425
G1 X138.962 Y103.802 E71.89346
G1 X139.512 Y103.557 E71.9235
G1 X140.099 Y103.166 E71.95869
G1 X140.578 Y102.658 E71.99352
G1 X140.908 Y102.163 E72.0232
G1 X141.153 Y101.613 E72.05324
G1 X141.299 Y101.045 E72.0825
G1 X141.351 Y100.439 E72.11285
G1 X141.35 Y50.157 E74.62143
G1 X141.298 Y49.555 E74.65157
G1 X141.152 Y48.988 E74.68078
G1 X140.907 Y48.438 E74.71082
G1 X140.516 Y47.851 E74.74601
G1 X140.008 Y47.372 E74.78084
G1 X139.513 Y47.042 E74.81052
G1 X138.963 Y46.797 E74.84056
G1 X138.396 Y46.651 E74.86977
G1 X137.789 Y46.6 E74.90016
G1 X72.211 Y46.6 E78.17186
G1 X71.605 Y46.652 E78.20221
G1 X71.038 Y46.798 E78.23142
G1 X70.488 Y47.043 E78.26146
G1 X69.901 Y47.434 E78.29664
G1 X69.422 Y47.942 E78.33148
G1 X69.092 Y48.437 E78.36116
G1 X68.847 Y48.987 E78.3912
G1 X68.701 Y49.554 E78.42041
M205 X10 Y10
G0 F6000 X68.684 Y49.753
G0 X69.829 Y50.222
M205 X8 Y8
;TYPE:SKIN
G1 F1200 X69.83 Y100.726 E80.94006
G1 X70.136 Y101.597 E80.98612
G1 X70.391 Y101.978 E81.00899
G1 X70.895 Y102.46 E81.04379
G1 X71.915 Y102.82 E81.09775
G1 X138.077 Y102.819 E84.39859
G1 X138.949 Y102.512 E84.44471
G1 X139.332 Y102.258 E84.46764
G1 X139.649 Y101.923 E84.49065
G1 X140.033 Y101.22 E84.53061
G1 X140.171 Y100.378 E84.57318
G1 X140.17 Y50.214 E87.07587
G1 X140.004 Y49.212 E87.12654
G1 X139.61 Y48.621 E87.16198
G1 X139.275 Y48.302 E87.18506
G1 X138.57 Y47.916 E87.22516
G1 X137.729 Y47.78 E87.26766
G1 X72.272 Y47.78 E90.53332
G1 X71.264 Y47.944 E90.58427
G1 X70.671 Y48.34 E90.61985
G1 X70.351 Y48.677 E90.64303
G1 X69.967 Y49.38 E90.683
G1 X69.829 Y50.222 E90.72556
M205 X10 Y10
G1 F1800 E84.72556
G1 F480 Z0.375
G0 F6000 X70.273 Y101.386 Z0.375
M205 X8 Y8
G1 F480 Z0.3
G1 F1800 E90.72556
G1 F1200 X71.265 Y102.378 E90.79556
G1 X71.335 Y102.448
M205 X10 Y10
G0 F6000 X72.071 Y102.618
M205 X8 Y8
G1 F1200 X70.029 Y100.576 E90.93963
M205 X10 Y10
G0 F6000 X70.029 Y100.01
M205 X8 Y8
G1 F1200 X72.637 Y102.618 E91.12364
M205 X10 Y10
G0 F6000 X73.203 Y102.618
M205 X8 Y8
G1 F1200 X70.029 Y99.444 E91.34758
M205 X10 Y10
G0 F6000 X70.029 Y98.878
M205 X8 Y8
G1 F1200 X73.768 Y102.618 E91.61142
M205 X10 Y10
G0 F6000 X74.334 Y102.618
M205 X8 Y8
G1 F1200 X70.029 Y98.313 E91.91516
M205 X10 Y10
G0 F6000 X70.029 Y97.747
M205 X8 Y8
G1 F1200 X74.9 Y102.618 E92.25884
M205 X10 Y10
G0 F6000 X75.465 Y102.618
M205 X8 Y8
G1 F1200 X70.029 Y97.181 E92.64241
M205 X10 Y10
G0 F6000 X70.029 Y96.616
M205 X8 Y8
G1 F1200 X76.031 Y102.618 E93.06589
M205 X10 Y10
G0 F6000 X76.597 Y102.618
M205 X8 Y8
G1 F1200 X70.029 Y96.05 E93.52929
M205 X10 Y10
G0 F6000 X70.029 Y95.484
M205 X8 Y8
G1 F1200 X77.163 Y102.618 E94.03264
M205 X10 Y10
G0 F6000 X77.728 Y102.618
M205 X8 Y8
G1 F1200 X70.029 Y94.919 E94.57584
M205 X10 Y10
G0 F6000 X70.029 Y94.353
M205 X8 Y8
G1 F1200 X78.294 Y102.618 E95.15898
M205 X10 Y10
G0 F6000 X78.86 Y102.618
M205 X8 Y8
G1 F1200 X70.029 Y93.787 E95.78206
M205 X10 Y10
G0 F6000 X70.029 Y93.222
M205 X8 Y8
G1 F1200 X79.425 Y102.618 E96.445
M205 X10 Y10
G0 F6000 X79.991 Y102.618
M205 X8 Y8
G1 F1200 X70.029 Y92.656 E97.14787
M205 X10 Y10
G0 F6000 X70.029 Y92.09
M205 X8 Y8
G1 F1200 X80.557 Y102.618 E97.89068
M205 X10 Y10
G0 F6000 X81.122 Y102.618
M205 X8 Y8
G1 F1200 X70.029 Y91.525 E98.67335
M205 X10 Y10
G0 F6000 X70.029 Y90.959
M205 X8 Y8
G1 F1200 X81.688 Y102.618 E99.49595
M205 X10 Y10
G0 F6000 X82.254 Y102.618
M205 X8 Y8
G1 F1200 X70.029 Y90.393 E100.35849
M205 X10 Y10
G0 F6000 X70.029 Y89.828
M205 X8 Y8
G1 F1200 X82.819 Y102.618 E101.2609
M205 X10 Y10
G0 F6000 X83.385 Y102.618
M205 X8 Y8
G1 F1200 X70.029 Y89.262 E102.20323
M205 X10 Y10
G0 F6000 X70.029 Y88.696
M205 X8 Y8
G1 F1200 X83.951 Y102.618 E103.18551
M205 X10 Y10
G0 F6000 X84.516 Y102.618
M205 X8 Y8
G1 F1200 X70.029 Y88.13 E104.20768
M205 X10 Y10
G0 F6000 X70.029 Y87.565
M205 X8 Y8
G1 F1200 X85.082 Y102.618 E105.26975
M205 X10 Y10
G0 F6000 X85.648 Y102.618
M205 X8 Y8
G1 F1200 X70.029 Y86.999 E106.37175
M205 X10 Y10
G0 F6000 X70.029 Y86.433
M205 X8 Y8
G1 F1200 X86.213 Y102.618 E107.51366
M205 X10 Y10
G0 F6000 X86.779 Y102.618
M205 X8 Y8
G1 F1200 X70.029 Y85.868 E108.69546
M205 X10 Y10
G0 F6000 X70.029 Y85.302
M205 X8 Y8
G1 F1200 X87.345 Y102.618 E109.9172
M205 X10 Y10
G0 F6000 X87.911 Y102.618
M205 X8 Y8
G1 F1200 X70.029 Y84.736 E111.17887
M205 X10 Y10
G0 F6000 X70.029 Y84.171
M205 X8 Y8
G1 F1200 X88.476 Y102.618 E112.4804
M205 X10 Y10
G0 F6000 X89.042 Y102.618
M205 X8 Y8
G1 F1200 X70.029 Y83.605 E113.82187
M205 X10 Y10
G0 F6000 X70.029 Y83.039
M205 X8 Y8
G1 F1200 X89.608 Y102.618 E115.20328
M205 X10 Y10
G0 F6000 X90.173 Y102.618
M205 X8 Y8
G1 F1200 X70.029 Y82.474 E116.62455
M205 X10 Y10
G0 F6000 X70.029 Y81.908
M205 X8 Y8
G1 F1200 X90.739 Y102.618 E118.08575
M205 X10 Y10
G0 F6000 X91.305 Y102.618
M205 X8 Y8
G1 F1200 X70.029 Y81.342 E119.58689
M205 X10 Y10
G0 F6000 X70.029 Y80.777
M205 X8 Y8
G1 F1200 X91.87 Y102.618 E121.12789
M205 X10 Y10
G0 F6000 X92.436 Y102.618
M205 X8 Y8
G1 F1200 X70.029 Y80.211 E122.70882
M205 X10 Y10
G0 F6000 X70.029 Y79.645
M205 X8 Y8
G1 F1200 X93.002 Y102.618 E124.32969
M205 X10 Y10
